svg/UnitedNations-Flags/flag-gg.svg

<svg height="256" viewBox="-18 -12 36 24" width="256" xmlns="http://www.w3.org/2000/svg" xmlns:xlink="http://www.w3.org/1999/xlink"><path fill="#fff" d="m-18-12h36v24h-36z"/><path d="m0-12v24m-18-12h36" fill="none" stroke="#e8112d" stroke-width="6"/><path d="m-9 2l1-1h9v-2h-9l-1-1v4" id="0" fill="#f9dd16"/><use height="24" transform="matrix(0 1-1 0 0 0)" width="36" xlink:href="#0"/><use height="24" transform="matrix(0-1 1 0 0 0)" width="36" xlink:href="#0"/><use height="24" transform="scale(-1-1)" width="36" xlink:href="#0"/></svg>

<?xml version="1.0" encoding="UTF-8" standalone="no"?>
<svg height="256" id="svg3927" inkscape:output_extension="org.inkscape.output.svg.inkscape" inkscape:version="0.46" sodipodi:docname="Flag_of_Guernsey.svg" sodipodi:version="0.32" version="1.0" viewBox="-18 -12 36 24" width="256" xmlns="http://www.w3.org/2000/svg" xmlns:cc="http://creativecommons.org/ns#" xmlns:dc="http://purl.org/dc/elements/1.1/" xmlns:inkscape="http://www.inkscape.org/namespaces/inkscape" xmlns:rdf="http://www.w3.org/1999/02/22-rdf-syntax-ns#" xmlns:sodipodi="http://sodipodi.sourceforge.net/DTD/sodipodi-0.dtd" xmlns:svg="http://www.w3.org/2000/svg" xmlns:xlink="http://www.w3.org/1999/xlink">
  <metadata>
    <rdf:RDF xmlns:cc="http://web.resource.org/cc/" xmlns:dc="http://purl.org/dc/elements/1.1/" xmlns:rdf="http://www.w3.org/1999/02/22-rdf-syntax-ns#">
      <cc:Work rdf:about="">
        <dc:title></dc:title>
        <dc:description></dc:description>
        <dc:subject>
          <rdf:Bag>
            <rdf:li>unsorted</rdf:li>
          </rdf:Bag>
        </dc:subject>
        <dc:publisher>
          <cc:Agent rdf:about="http://www.openclipart.org/">
            <dc:title>Open Clip Art Library, Source: Wikimedia Commons, Source: Wikimedia Commons, Source: Wikimedia Commons, Source: Wikimedia Commons</dc:title>
          </cc:Agent>
        </dc:publisher>
        <dc:creator>
          <cc:Agent>
            <dc:title></dc:title>
          </cc:Agent>
        </dc:creator>
        <dc:rights>
          <cc:Agent>
            <dc:title></dc:title>
          </cc:Agent>
        </dc:rights>
        <dc:date></dc:date>
        <dc:format>image/svg+xml</dc:format>
        <dc:type rdf:resource="http://purl.org/dc/dcmitype/StillImage"/>
        <cc:license rdf:resource="http://en.wikipedia.org/wiki/Public_domain"/>
        <dc:language>en</dc:language>
      </cc:Work>
    </rdf:RDF>
  </metadata>
  <defs id="defs3941">
    <inkscape:perspective id="perspective3945" inkscape:persp3d-origin="450 : 200 : 1" inkscape:vp_x="0 : 300 : 1" inkscape:vp_y="0 : 1000 : 0" inkscape:vp_z="900 : 300 : 1" sodipodi:type="inkscape:persp3d"/>
  </defs>
  <sodipodi:namedview bordercolor="#666666" borderopacity="1.0" gridtolerance="10.0" guidetolerance="10.0" id="base" inkscape:current-layer="svg3927" inkscape:cx="450" inkscape:cy="300" inkscape:pageopacity="0.0" inkscape:pageshadow="2" inkscape:window-height="811" inkscape:window-width="926" inkscape:window-x="-32" inkscape:window-y="169" inkscape:zoom="0.62111111" objecttolerance="10.0" pagecolor="#ffffff" showgrid="false"/>
  <rect height="24" id="rect3929" style="fill:#ffffff" width="36" x="-18" y="-12"/>
  <path d="M 0,-12 L 0,12 M -18,0 L 18,0" id="path3931" style="fill:none;stroke:#e8112d;stroke-width:6"/>
  <path d="M -9,2 L -8,1 L 1,1 L 1,-1 L -8,-1 L -9,-2 L -9,2 z" id="arm" style="fill:#f9dd16"/>
  <use height="24" id="use3934" transform="matrix(0,1,-1,0,0,0)" width="36" x="0" xlink:href="#arm" y="0"/>
  <use height="24" id="use3936" transform="matrix(0,-1,1,0,0,0)" width="36" x="0" xlink:href="#arm" y="0"/>
  <use height="24" id="use3938" transform="scale(-1,-1)" width="36" x="0" xlink:href="#arm" y="0"/>
</svg>
